lightbulb-on-10.svg

<svg fill="currentColor" viewBox="0 0 24 24"><path d="M1 11h3v2H1zm18.1-7.5L17 5.6 18.4 7l2.1-2.1zM11 1h2v3h-2zM4.9 3.5 3.5 4.9 5.6 7 7 5.6zM10 22c0 .6.4 1 1 1h2c.6 0 1-.4 1-1v-1h-4zm2-16c-3.3 0-6 2.7-6 6 0 2.2 1.2 4.2 3 5.2V19c0 .6.4 1 1 1h4c.6 0 1-.4 1-1v-1.8c1.8-1 3-3 3-5.2 0-3.3-2.7-6-6-6m1 9.9V17h-2v-1.1c-1.7-.4-3-2-3-3.9 0-2.2 1.8-4 4-4s4 1.8 4 4c0 1.9-1.3 3.4-3 3.9m7-4.9h3v2h-3z"/></svg>

<svg  viewBox="0 0 24 24" fill="currentColor"><path  d="M1 11H4V13H1V11M19.1 3.5L17 5.6L18.4 7L20.5 4.9L19.1 3.5M11 1H13V4H11V1M4.9 3.5L3.5 4.9L5.6 7L7 5.6L4.9 3.5M10 22C10 22.6 10.4 23 11 23H13C13.6 23 14 22.6 14 22V21H10V22M12 6C8.7 6 6 8.7 6 12C6 14.2 7.2 16.2 9 17.2V19C9 19.6 9.4 20 10 20H14C14.6 20 15 19.6 15 19V17.2C16.8 16.2 18 14.2 18 12C18 8.7 15.3 6 12 6M13 15.9V17H11V15.9C9.3 15.5 8 13.9 8 12C8 9.8 9.8 8 12 8S16 9.8 16 12C16 13.9 14.7 15.4 13 15.9M20 11H23V13H20V11Z"/></svg>
